public/frontend/images/icons/nav/about.svg

<svg width="24" height="24" viewBox="0 0 24 24" fill="none" xmlns="http://www.w3.org/2000/svg">
<path fill-rule="evenodd" clip-rule="evenodd" d="M12 5C10.3431 5 9 6.34315 9 8C9 9.65685 10.3431 11 12 11C13.6569 11 15 9.65685 15 8C15 6.34315 13.6569 5 12 5ZM7 8C7 5.23858 9.23858 3 12 3C14.7614 3 17 5.23858 17 8C17 10.7614 14.7614 13 12 13C9.23858 13 7 10.7614 7 8ZM7.45609 16.7264C6.40184 17.1946 6 17.7858 6 18.5C6 18.7236 6.03976 18.8502 6.09728 18.942C6.15483 19.0338 6.29214 19.1893 6.66219 19.3567C7.45312 19.7145 9.01609 20 12 20C14.9839 20 16.5469 19.7145 17.3378 19.3567C17.7079 19.1893 17.8452 19.0338 17.9027 18.942C17.9602 18.8502 18 18.7236 18 18.5C18 17.7858 17.5982 17.1946 16.5439 16.7264C15.4614 16.2458 13.8722 16 12 16C10.1278 16 8.53857 16.2458 7.45609 16.7264ZM6.64442 14.8986C8.09544 14.2542 10.0062 14 12 14C13.9938 14 15.9046 14.2542 17.3556 14.8986C18.8348 15.5554 20 16.7142 20 18.5C20 18.9667 19.9148 19.4978 19.5973 20.0043C19.2798 20.5106 18.7921 20.8939 18.1622 21.1789C16.9531 21.7259 15.0161 22 12 22C8.98391 22 7.04688 21.7259 5.83781 21.1789C5.20786 20.8939 4.72017 20.5106 4.40272 20.0043C4.08524 19.4978 4 18.9667 4 18.5C4 16.7142 5.16516 15.5554 6.64442 14.8986Z" fill="url(#paint0_linear_103_128)"/>
<defs>
<linearGradient id="paint0_linear_103_128" x1="12" y1="3" x2="12" y2="22" gradientUnits="userSpaceOnUse">
<stop offset="0.171875" stop-color="white"/>
<stop offset="0.520833" stop-color="#F9E2E2"/>
<stop offset="0.84375" stop-color="white"/>
</linearGradient>
</defs>
</svg>

<svg xmlns="http://www.w3.org/2000/svg" width="24" height="24" fill="none"><path fill="url(#a)" fill-rule="evenodd" d="M12 5a3 3 0 1 0 0 6 3 3 0 0 0 0-6ZM7 8a5 5 0 1 1 10 0A5 5 0 0 1 7 8Zm.456 8.726C6.402 17.195 6 17.786 6 18.5c0 .224.04.35.097.442.058.092.195.247.565.415.791.358 2.354.643 5.338.643s4.547-.285 5.338-.643c.37-.168.507-.323.565-.415.057-.092.097-.218.097-.442 0-.714-.402-1.305-1.456-1.774C15.46 16.246 13.872 16 12 16c-1.872 0-3.461.246-4.544.726ZM6.644 14.9C8.095 14.254 10.006 14 12 14c1.994 0 3.905.254 5.356.899C18.835 15.555 20 16.714 20 18.5c0 .467-.085.998-.403 1.504-.317.507-.805.89-1.435 1.175-1.209.547-3.146.821-6.162.821s-4.953-.274-6.162-.821c-.63-.285-1.118-.668-1.435-1.175C4.085 19.498 4 18.967 4 18.5c0-1.786 1.165-2.945 2.644-3.601Z" clip-rule="evenodd"/><defs><linearGradient id="a" x1="12" x2="12" y1="3" y2="22" gradientUnits="userSpaceOnUse"><stop offset=".172" stop-color="#fff"/><stop offset=".521" stop-color="#F9E2E2"/><stop offset=".844" stop-color="#fff"/></linearGradient></defs></svg>
